32x32/apps/org.atheme.audacious.svg

<svg height="32" width="32" xmlns="http://www.w3.org/2000/svg"><path d="m31 16a15 15 0 0 1 -15 15 15 15 0 0 1 -15-15 15 15 0 0 1 15-15 15 15 0 0 1 15 15z" fill="#4f4f4f"/><path d="m16.661 10.003c-.213-.008-.431.004-.656.015-1.336.063-3.698.011-4.62 1.195-.563.724-.3 2.407.562 2.582 1.075.218 2.893-.322 4.058-.19.812.093 1.05.804.388 1.298-.7.523-2.29.364-3.094.627-2.776.908-3.773 2.831-3.094 5.438" opacity=".2"/><path d="m16.661 9.003c-.213-.009-.431.004-.656.015-1.336.063-3.698.01-4.62 1.195-.563.724-.3 2.407.562 2.582 1.075.217 2.893-.323 4.058-.19.812.093 1.05.804.388 1.298-.7.522-2.29.364-3.094.627-2.776.907-3.773 2.831-3.094 5.438" fill="#fff"/><path d="m16 1a15 15 0 0 0 -15 15 15 15 0 0 0 .02.586 15 15 0 0 1 14.98-14.586 15 15 0 0 1 14.98 14.414 15 15 0 0 0 .02-.414 15 15 0 0 0 -15-15z" fill="#fff" opacity=".1"/><path d="m30.98 16.414a15 15 0 0 1 -14.98 14.586 15 15 0 0 1 -14.98-14.414 15 15 0 0 0 -.02.414 15 15 0 0 0 15 15 15 15 0 0 0 15-15 15 15 0 0 0 -.02-.586z" opacity=".2"/></svg>

<svg height="32" width="32" xmlns="http://www.w3.org/2000/svg">
    <path d="M31 16a15 15 0 0 1-15 15A15 15 0 0 1 1 16 15 15 0 0 1 16 1a15 15 0 0 1 15 15z" fill="#4f4f4f"/>
    <path d="M16.661 10.003c-.213-.008-.431.004-.656.015-1.336.063-3.698.011-4.62 1.195-.563.724-.3 2.407.562 2.582 1.075.218 2.893-.322 4.058-.19.812.093 1.05.804.388 1.298-.7.523-2.29.364-3.094.627-2.776.908-3.773 2.831-3.094 5.438" opacity=".2"/>
    <path d="M16.661 9.003c-.213-.009-.431.004-.656.015-1.336.063-3.698.01-4.62 1.195-.563.724-.3 2.407.562 2.582 1.075.217 2.893-.323 4.058-.19.812.093 1.05.804.388 1.298-.7.522-2.29.364-3.094.627-2.776.907-3.773 2.831-3.094 5.438" fill="#fff"/>
    <path d="M16 1A15 15 0 0 0 1 16a15 15 0 0 0 .02.586A15 15 0 0 1 16 2a15 15 0 0 1 14.98 14.414A15 15 0 0 0 31 16 15 15 0 0 0 16 1z" fill="#fff" opacity=".1"/>
    <path d="M30.98 16.414A15 15 0 0 1 16 31 15 15 0 0 1 1.02 16.586 15 15 0 0 0 1 17a15 15 0 0 0 15 15 15 15 0 0 0 15-15 15 15 0 0 0-.02-.586z" opacity=".2"/>
</svg>
